packages/merlin-www-assets/imports/gq/icons/card-image-gallery.svg

<svg viewBox="0 0 16 16" xmlns="http://www.w3.org/2000/svg"><path d="m13 16h-13v-13h3v-3h13v13h-3zm-12-1h11v-2h-9v-9h-2zm12-3h2v-11h-11v2h9zm-9 0h8v-8h-8z"/></svg>

<svg xmlns="http://www.w3.org/2000/svg" viewBox="0 0 16 16"><title>type-gallery</title><path d="M13 16H0V3h3V0h13v13h-3v3zM1 15h11v-2H3V4H1v11zm12-3h2V1H4v2h9v9zm-9 0h8V4H4v8z"/></svg>
